src/pos-icons/hazard-lights.svg

<svg height="24" viewBox="0 0 24 24" width="24" xmlns="http://www.w3.org/2000/svg"><path d="m12 12 2.33 4h-4.65zm0-4-5.79 10h11.59zm0-6-11 19h22zm0 4 7.53 13h-15.06z"/></svg>

<?xml version="1.0" encoding="UTF-8"?><!DOCTYPE svg PUBLIC "-//W3C//DTD SVG 1.1//EN" "http://www.w3.org/Graphics/SVG/1.1/DTD/svg11.dtd"><svg xmlns="http://www.w3.org/2000/svg" xmlns:xlink="http://www.w3.org/1999/xlink" version="1.1" id="mdi-hazard-lights" width="24" height="24" viewBox="0 0 24 24"><path d="M12,12L14.33,16H9.68L12,12M12,8L6.21,18H17.8L12,8M12,2L1,21H23L12,2M12,6L19.53,19H4.47L12,6Z" /></svg>
